X:1
T:Leuchars, 66.66
T:Leuchars, 66.66
T:Thomas Legerwood Hately (1815-1867)
T:Public Domain Courtesy of the Cyber Hymnal™
C:Thomas Legerwood Hately (1815-1867)
Z:Public Domain
Z:Courtesy of the Cyber Hymnal™
%%score ( 1 2 ) 3
L:1/8
Q:1/4=110
M:4/4
K:F
V:1 treble 
V:2 treble 
V:3 bass 
V:1
 [FA]2 | [FA]2 [Ec]2 [GB]2 [FA]2 | [EG]6 [EA]2 | [DF]2 [DF]2 [EG]2 [EG]2 | [FA]6 [FA]2 | %5
 [DB]2 [FA]2 [EG]2 [DF]2 | [^CE]6 [DF]2 | [EG]2 [FA]2 [FG]2 [EG]2 | F6 |] %9
V:2
 x2 | x8 | x8 | x8 | x8 | x8 | x8 | x8 | F6 |] %9
V:3
 [F,C]2 | [F,C]2 [C,C]2 [E,C]2 [F,C]2 | [C,C]6 [A,,^C]2 | [D,D]2 [D,A,]2 [C,C]2 [C,C]2 | %4
 [F,C]6 [F,C]2 | [G,B,]2 [F,C]2 [C,C]2 [D,A,]2 | [A,,A,]6 [D,A,]2 | [C,C]2 [A,,C]2 [B,,D]2 [C,C]2 | %8
 [F,A,]6 |] %9

